X: 3159
T: RU' GLEN LUMS
Q: "Strathspey."
R: Strathspey.
%R: strathspey
B: James Kerr "Merry Melodies" v.3 p.19 #159
Z: 2016 John Chambers <jc:trillian.mit.edu>
N: The 2nd strain has initial repeat but no final repeat; fixed.
M: C
L: 1/16
K: F
|:\
vc3vduc3uA (GF3) F3G | C3DF3G Ac3 df3 |\
c3dc3A (GF3) F3A | D3G FEDE F6 A2 :|
|:\
c3dcA3 cf3 df3 | c3dcA3 AG3 GA3 |\
c3dcA3 cf3 df3 | D3G FEDE F6 A2 :|

%%sep 1 1 500
%%sep 1 1 500

